src/images/bridges/wbtc-dao.svg

<svg width="100%" height="100%" viewBox="0 0 35 35" version="1.1" xmlns="http://www.w3.org/2000/svg" xmlns:xlink="http://www.w3.org/1999/xlink" fit="" preserveAspectRatio="xMidYMid meet" focusable="false">
    <!-- Generator: Sketch 52.5 (67469) - http://www.bohemiancoding.com/sketch -->
    <title>icon-wbtc</title>
    <desc>Created with Sketch.</desc>
    <g id="Designs" stroke="none" stroke-width="1" fill="none" fill-rule="evenodd">
        <g id="Dashboard---Order-Book---Collapsed" transform="translate(-209.000000, -879.000000)">
            <g id="Group-20" transform="translate(158.000000, 696.000000)">
                <g id="Group-6" transform="translate(0.000000, 98.000000)">
                    <g id="Totals:-Network" transform="translate(50.000000, 39.000000)">
                        <g id="icon-wbtc" transform="translate(1.000000, 46.000000)">
                            <path d="M17.5,0 C27.1635,0 35,7.83475 35,17.5 C35,27.1635 27.1635,35 17.5,35 C7.83475,35 0,27.1635 0,17.5 C0,7.83475 7.83475,0 17.5,0" id="Fill-1" fill="#FFFFFF"></path>
                            <path d="M28.5383,7.345275 L27.57755,8.306025 C32.33055,13.505275 32.33055,21.469525 27.57755,26.668775 L28.5383,27.629525 C33.8268,21.893025 33.8268,13.059025 28.5383,7.322525 L28.5383,7.345275 Z" id="Fill-3" fill="#5A5564"></path>
                            <path d="M8.325275,7.428925 C13.522775,2.675925 21.488775,2.675925 26.688025,7.428925 L27.648775,6.468175 C21.912275,1.177925 13.076525,1.177925 7.341775,6.468175 L8.325275,7.428925 Z" id="Fill-5" fill="#5A5564"></path>
                            <path d="M7.428925,26.677175 C2.681175,21.481425 2.681175,13.522425 7.428925,8.324925 L6.468175,7.364175 C1.177925,13.100675 1.177925,21.934675 6.468175,27.669425 L7.428925,26.677175 Z" id="Fill-7" fill="#5A5564"></path>
                            <path d="M26.677175,27.56425 C21.479675,32.319 13.513675,32.319 8.316175,27.56425 L7.353675,28.52675 C13.090175,33.81525 21.925925,33.81525 27.660675,28.52675 L26.677175,27.56425 Z" id="Fill-9" fill="#5A5564"></path>
                            <path d="M20.412175,15.0528 C20.412175,16.9743 17.407425,16.74155 16.451925,16.74155 L16.451925,13.3553 C17.407425,13.3553 20.412175,13.0543 20.412175,15.0528 M21.196175,20.3098 C21.196175,22.4098 17.596425,22.17005 16.448425,22.17005 L16.448425,18.44255 C17.596425,18.4443 21.196175,18.1153 21.196175,20.3098 M23.567425,14.2933 C23.374925,12.2878 21.645925,11.6158 19.456675,11.4093 L19.456675,8.64605 L17.766175,8.64605 L17.766175,11.3568 C17.319925,11.3568 16.866675,11.3568 16.413425,11.3708 L16.413425,8.64605 L14.731675,8.64605 L14.731675,11.4268 L13.655425,11.4268 L11.305175,11.4268 L11.305175,13.2363 C11.305175,13.2363 12.554675,13.21355 12.535425,13.2363 C13.002675,13.18555 13.427925,13.51455 13.496175,13.98005 L13.496175,21.5943 C13.485675,21.75355 13.412175,21.9023 13.293175,22.00905 C13.172425,22.1123 13.014925,22.1648 12.855675,22.15605 C12.876675,22.17355 11.625425,22.15605 11.625425,22.15605 L11.289425,24.17555 L13.492675,24.17555 L14.703675,24.17555 L14.703675,27.0018 L16.395925,27.0018 L16.395925,24.21755 L17.746925,24.21755 L17.746925,26.9878 L19.440925,26.9878 L19.440925,24.19655 C22.298675,24.02155 24.291925,23.31805 24.540425,20.6423 C24.743425,18.4898 23.730175,17.52905 22.113175,17.14055 C23.096675,16.6418 23.714425,15.7598 23.567425,14.2933" id="Fill-11" fill="#F09242"></path>
                            <g fill="#282138" id="Fill-13">
                                <path d="M17.4965,1.36465 C8.5925,1.3699 1.379,8.5904 1.38075,17.4944 C1.3825,26.3984 8.60125,33.6154 17.50525,33.6154 C26.40925,33.61715 33.62975,26.40015 33.63325,17.49615 C33.621,8.59215 26.40225,1.3769 17.4965,1.3734 L17.4965,1.36465 Z M17.4965,34.99965 C7.833,34.9979 -0.00175,27.16315 5.29395592e-23,17.49965 C5.29395592e-23,7.8344 7.83475,0.0014 17.49825,-0.00035 C27.16175,-0.00035 34.99825,7.83265 35,17.49615 C34.9895,27.15965 27.15825,34.98915 17.4965,34.99965 Z"></path>
                            </g>
                        </g>
                    </g>
                </g>
            </g>
        </g>
    </g>
</svg>

<svg xmlns="http://www.w3.org/2000/svg" viewBox="0 0 35 35"><g fill="none" fill-rule="evenodd"><path fill="#FFF" d="M17.5 0C27.164 0 35 7.835 35 17.5S27.163 35 17.5 35C7.835 35 0 27.163 0 17.5 0 7.835 7.835 0 17.5 0"/><path fill="#5A5564" d="m28.538 7.345-.96.961a13.606 13.606 0 0 1 0 18.363l.96.96c5.289-5.736 5.289-14.57 0-20.306zM8.325 7.429c5.198-4.753 13.164-4.753 18.363 0l.96-.96c-5.736-5.291-14.571-5.291-20.306 0zM7.429 26.677c-4.748-5.196-4.748-13.155 0-18.352l-.96-.96c-5.291 5.736-5.291 14.57 0 20.304zM26.677 27.564a13.6 13.6 0 0 1-18.36 0l-.963.963c5.736 5.288 14.572 5.288 20.307 0z"/><path fill="#F09242" d="M20.412 15.053c0 1.921-3.005 1.689-3.96 1.689v-3.387c.955 0 3.96-.3 3.96 1.698m.784 5.257c0 2.1-3.6 1.86-4.748 1.86v-3.727c1.148.001 4.748-.328 4.748 1.867m2.371-6.017c-.192-2.005-1.921-2.677-4.11-2.884V8.646h-1.69v2.71c-.447 0-.9 0-1.354.015V8.646h-1.681v2.78h-3.427v1.81s1.25-.022 1.23 0a.877.877 0 0 1 .961.744v7.614a.6.6 0 0 1-.203.415.62.62 0 0 1-.437.147c.02.018-1.23 0-1.23 0l-.337 2.02h3.414v2.826h1.693v-2.784h1.35v2.77h1.695v-2.791c2.858-.175 4.85-.879 5.1-3.555.202-2.152-.81-3.113-2.428-3.501.984-.5 1.601-1.381 1.454-2.848"/><path fill="#282138" d="M17.497 1.365C8.593 1.37 1.379 8.59 1.38 17.495c.002 8.903 7.22 16.12 16.124 16.12 8.904.002 16.125-7.215 16.128-16.119-.012-8.904-7.23-16.12-16.137-16.123zm0 33.635C7.833 34.998-.002 27.163 0 17.5 0 7.834 7.835 0 17.498 0 27.162 0 34.998 7.833 35 17.496 34.99 27.16 27.158 34.99 17.497 35"/></g></svg>
